public/icon/Z_ALL/Douban.svg

<?xml version="1.0" encoding="UTF-8"?>
<svg width="1024px" height="1024px" viewBox="0 0 1024 1024" version="1.1" xmlns="http://www.w3.org/2000/svg" xmlns:xlink="http://www.w3.org/1999/xlink">
    <title>Douban</title>
    <g id="ICON-新版方图标" stroke="none" stroke-width="1" fill="none" fill-rule="evenodd">
        <g id="Douban">
            <rect id="蒙版路径" fill="#00B51D" x="0" y="0" width="1024" height="1024"></rect>
            <path d="M835.273128,170.401306 L188.19615,170.401306 C185.018645,170.401306 181.971281,171.663565 179.724445,173.910401 C177.47761,176.157237 176.21535,179.2046 176.21535,182.382106 L176.21535,230.310995 C176.21535,236.927173 181.579973,242.291795 188.19615,242.291795 L835.273128,242.291795 C841.889941,242.291795 847.253928,236.927808 847.253928,230.310995 L847.253928,182.382106 C847.253928,175.765293 841.889941,170.401306 835.273128,170.401306 L835.273128,170.401306 Z M835.273128,781.166106 L669.902817,781.166106 L719.333573,624.812684 L780.676861,624.812684 C787.293675,624.812684 792.657661,619.448697 792.657661,612.831884 L792.657661,322.579084 C792.659172,319.401115 791.397397,316.352874 789.150234,314.105711 C786.903071,311.858548 783.85483,310.598282 780.676861,310.598282 L242.792417,310.598282 C236.175604,310.598282 230.811617,315.962271 230.811617,322.579084 L230.811617,612.831884 C230.811617,619.448061 236.17055,624.812684 242.792417,624.812684 L622.150284,624.812684 L572.713839,781.166106 L436.009839,781.166106 L399.760239,666.529306 C397.672417,659.907439 390.612506,654.548506 383.996328,654.548506 L310.751884,654.548506 C304.135706,654.548506 300.466373,659.907439 302.565573,666.529306 L338.809484,781.166106 L188.19615,781.166106 C185.018645,781.166106 181.971281,782.428365 179.724445,784.675201 C177.47761,786.922037 176.21535,789.9694 176.21535,793.146906 L176.21535,841.081484 C176.21535,847.697661 181.579973,853.062284 188.19615,853.062284 L835.273128,853.062284 C838.450634,853.062284 841.497997,851.800024 843.744833,849.553189 C845.991669,847.306353 847.253928,844.258989 847.253928,841.081484 L847.253928,793.146906 C847.253928,786.530093 841.889941,781.166106 835.273128,781.166106 L835.273128,781.166106 Z M344.640595,537.602017 L344.640595,397.797573 C344.640595,391.181395 349.999528,385.816773 356.621395,385.816773 L666.842195,385.816773 C673.458373,385.816773 678.822995,391.187084 678.822995,397.797573 L678.822995,537.602017 C678.822995,540.779523 677.560736,543.826886 675.3139,546.073722 C673.067064,548.320558 670.019701,549.582817 666.842195,549.582817 L356.621395,549.582817 C353.443889,549.582817 350.396526,548.320558 348.14969,546.073722 C345.902854,543.826886 344.640595,540.779523 344.640595,537.602017 L344.640595,537.602017 Z" id="形状" fill="#FFFFFF" fill-rule="nonzero"></path>
        </g>
    </g>
</svg>

<svg xmlns="http://www.w3.org/2000/svg" width="1024" height="1024"><g fill="none" fill-rule="evenodd"><path fill="#00B51D" d="M0 0h1024v1024H0z"/><path fill="#FFF" fill-rule="nonzero" d="M835.273 170.401H188.196a11.98 11.98 0 0 0-11.98 11.981v47.929c0 6.616 5.364 11.98 11.98 11.98h647.077c6.617 0 11.98-5.363 11.98-11.98v-47.929c0-6.617-5.363-11.98-11.98-11.98m0 610.765h-165.37l49.43-156.353h61.344c6.617 0 11.98-5.364 11.98-11.981V322.579a11.975 11.975 0 0 0-11.98-11.98H242.792c-6.616 0-11.98 5.363-11.98 11.98v290.253c0 6.616 5.359 11.98 11.98 11.98H622.15l-49.436 156.354H436.01L399.76 666.53c-2.088-6.622-9.147-11.98-15.764-11.98h-73.244c-6.616 0-10.286 5.358-8.186 11.98l36.243 114.637H188.196a11.98 11.98 0 0 0-11.98 11.98v47.935c0 6.617 5.364 11.981 11.98 11.981h647.077a11.98 11.98 0 0 0 11.98-11.98v-47.935c0-6.617-5.363-11.98-11.98-11.98M344.641 537.602V397.798c0-6.617 5.359-11.981 11.98-11.981h310.221c6.616 0 11.981 5.37 11.981 11.98v139.805a11.98 11.98 0 0 1-11.98 11.98H356.62a11.98 11.98 0 0 1-11.98-11.98"/></g></svg>
